luts/iPhone_15_Pro_Standard.cube
# Generated by ComfyUI-CameraForensicRealism
# iPhone 15 Pro ISP Color Science LUT
TITLE "iPhone 15 Pro Standard"
LUT_3D_SIZE 5
DOMAIN_MIN 0.0 0.0 0.0
DOMAIN_MAX 1.0 1.0 1.0
0.000000 0.011122 0.048927
0.000000 0.006144 0.274171
0.000000 0.006060 0.525381
0.000000 0.006698 0.785320
0.000000 0.007208 1.000000
0.006533 0.249565 0.019304
0.007406 0.248831 0.249695
0.008183 0.245423 0.503660
0.008771 0.237693 0.766079
0.009060 0.225151 0.989384
0.011322 0.512525 0.011322
0.011322 0.512095 0.237554
0.011322 0.510595 0.496159
0.011322 0.507549 0.760522
0.011322 0.503264 0.985567
0.011322 0.782837 0.011322
0.011322 0.782588 0.224719
0.011322 0.781723 0.491503
0.011322 0.779983 0.757881
0.011322 0.777576 0.985473
0.012147 0.992829 0.010772
0.013019 0.993111 0.201858
0.014302 0.993507 0.483363
0.015523 0.993852 0.751679
0.016595 0.994122 0.987545
0.241917 0.007042 0.035119
0.242456 0.007153 0.264440
0.240431 0.007680 0.516815
0.234112 0.008164 0.777723
0.222876 0.008517 0.999644
0.252350 0.249305 0.015179
0.251905 0.248459 0.244923
0.248715 0.244897 0.500046
0.241102 0.236939 0.763117
0.228585 0.224046 0.986990
0.249912 0.512071 0.011322
0.248818 0.511639 0.236332
0.244897 0.510134 0.495684
0.236336 0.507078 0.760249
0.222361 0.502778 0.985557
0.239362 0.782574 0.011322
0.238090 0.782325 0.223229
0.233484 0.781458 0.491011
0.223100 0.779716 0.757606
0.204539 0.777306 0.993226
0.226616 0.993764 0.008883
0.225784 0.994035 0.197723
0.220762 0.994406 0.481030
0.206188 0.994682 0.749720
0.171568 0.994795 0.985986
0.513340 0.008299 0.026439
0.514164 0.008714 0.252616
0.513971 0.009141 0.507865
0.512157 0.009533 0.769926
0.508846 0.009830 0.993046
0.521200 0.245925 0.012427
0.521065 0.244924 0.238555
0.519793 0.241059 0.496585
0.516897 0.232490 0.760708
0.512708 0.218397 0.985623
0.519938 0.510465 0.011322
0.519509 0.510029 0.231867
0.518010 0.508507 0.494004
0.514967 0.505415 0.759293
0.510688 0.501062 0.985523
0.516006 0.781648 0.011322
0.515564 0.781398 0.217689
0.514202 0.780588 0.489152
0.512167 0.779203 0.755787
0.508663 0.777083 0.991100
0.518366 0.995016 0.006313
0.518722 0.995278 0.186112
0.518425 0.995681 0.476590
0.516355 0.996012 0.746005
0.512778 0.996262 0.982304
0.792890 0.009643 0.019720
0.793531 0.009938 0.237689
0.793625 0.010252 0.498955
0.792739 0.010526 0.763048
0.790976 0.010725 0.988500
0.797597 0.237560 0.011349
0.797368 0.236325 0.228892
0.796518 0.231839 0.492935
0.794808 0.221773 0.758687
0.792443 0.204045 0.985501
0.796505 0.507192 0.011322
0.796259 0.506746 0.221877
0.795404 0.505187 0.490573
0.793686 0.502019 0.757361
0.791308 0.497555 0.993056
0.795995 0.780356 0.010172
0.796611 0.780391 0.202814
0.796975 0.779923 0.483171
0.796358 0.778531 0.751388
0.794889 0.776399 0.987284
0.802667 0.996200 0.003810
0.803094 0.996417 0.153259
0.803652 0.996863 0.470356
0.803102 0.997203 0.741496
0.801709 0.997463 0.978396
0.989819 0.010356 0.016153
0.990439 0.010566 0.222490
0.991114 0.010801 0.492187
0.991619 0.010990 0.758468
0.991928 0.011122 0.993674
0.992706 0.225935 0.011322
0.992697 0.224441 0.216413
0.992666 0.218942 0.488891
0.992604 0.205864 0.756425
0.992517 0.176252 0.992407
0.992665 0.503274 0.011322
0.992656 0.502814 0.207542
0.992625 0.501211 0.486456
0.992563 0.497947 0.755084
0.992476 0.493342 0.991478
0.996866 0.779009 0.008468
0.997621 0.779008 0.178401
0.998912 0.778562 0.477195
1.000000 0.777161 0.747359
1.000000 0.775013 0.983951
1.000000 0.997018 0.002017
1.000000 0.997230 0.148093
1.000000 0.997678 0.464065
1.000000 0.998028 0.737337
1.000000 0.998299 0.974958
