luts/iPhone_15_Pro_Standard.cube
# Generated by ComfyUI-CameraForensicRealism
# iPhone 15 Pro ISP Color Science LUT
TITLE "iPhone 15 Pro Standard"
LUT_3D_SIZE 33
DOMAIN_MIN 0.0 0.0 0.0
DOMAIN_MAX 1.0 1.0 1.0
0.000000 0.011122 0.048927
0.000000 0.010953 0.074858
0.000000 0.010728 0.100150
0.000000 0.010380 0.126978
0.000000 0.009889 0.155016
0.000000 0.009235 0.183938
0.000000 0.008402 0.213526
0.000000 0.007376 0.243637
0.000000 0.006144 0.274171
0.000000 0.005486 0.304931
0.000000 0.005568 0.335838
0.000000 0.005651 0.366980
0.000000 0.005733 0.398327
0.000000 0.005815 0.429856
0.000000 0.005897 0.461551
0.000000 0.005979 0.493397
0.000000 0.006060 0.525381
0.000000 0.006141 0.557495
0.000000 0.006222 0.589730
0.000000 0.006302 0.622077
0.000000 0.006382 0.654532
0.000000 0.006462 0.687089
0.000000 0.006541 0.719742
0.000000 0.006620 0.752487
0.000000 0.006698 0.785320
0.000000 0.006776 0.818238
0.000000 0.006853 0.851238
0.000000 0.006930 0.884316
0.000000 0.007007 0.917471
0.000000 0.007083 0.950698
0.000000 0.007145 0.978148
0.000000 0.007191 0.998502
0.000000 0.007208 1.000000
0.000399 0.038770 0.045060
0.000344 0.038616 0.071028
0.000226 0.038408 0.096419
0.000000 0.038081 0.123315
0.000000 0.037609 0.151402
0.000000 0.036959 0.180364
0.000000 0.036123 0.209985
0.000000 0.035095 0.240122
0.000000 0.033860 0.270678
0.000000 0.032415 0.301546
0.000000 0.030744 0.332694
0.000000 0.028832 0.364100
0.000000 0.026669 0.395738
0.000000 0.024244 0.427587
0.000000 0.023529 0.459396
0.000000 0.023608 0.491260
0.000000 0.023686 0.523264
0.000000 0.023763 0.555396
0.000000 0.023841 0.587649
0.000000 0.023918 0.620015
0.000000 0.023995 0.652488
0.000000 0.024071 0.685062
0.000000 0.024147 0.717733
0.000000 0.024222 0.750496
0.000000 0.024297 0.783347
0.000000 0.024372 0.816283
0.000000 0.024446 0.849301
0.000000 0.024519 0.882397
0.000000 0.024592 0.915569
0.000000 0.024665 0.948814
0.000000 0.024724 0.976278
0.000036 0.024768 0.996643
0.000085 0.024784 1.000000
0.001977 0.065700 0.041408
0.001916 0.065605 0.067405
0.001794 0.065472 0.092914
0.001549 0.065256 0.119881
0.001157 0.064940 0.148011
0.000597 0.064508 0.176994
0.000000 0.063943 0.206621
0.000000 0.063226 0.236752
0.000000 0.062335 0.267294
0.000000 0.061253 0.298131
0.000000 0.059938 0.329259
0.000000 0.058343 0.360646
0.000000 0.056404 0.392274
0.000000 0.054032 0.424128
0.000000 0.051335 0.456179
0.000000 0.048356 0.488409
0.000000 0.045088 0.520806
0.000000 0.041520 0.553361
0.000000 0.041128 0.585684
0.000000 0.041202 0.618068
0.000000 0.041275 0.650559
0.000000 0.041348 0.683152
0.000000 0.041421 0.715841
0.000000 0.041493 0.748621
0.000000 0.041565 0.781490
0.000000 0.041636 0.814444
0.000153 0.041706 0.847479
0.000363 0.041777 0.880593
0.000572 0.041846 0.913782
0.000779 0.041915 0.947045
0.000949 0.041972 0.974523
0.001074 0.042013 0.994899
0.001121 0.042029 1.000000
0.003379 0.094247 0.037603
0.003309 0.094187 0.063633
0.003179 0.094097 0.089318
0.002928 0.093947 0.116396
0.002532 0.093724 0.144599
0.001970 0.093416 0.173632
0.001225 0.093013 0.203291
0.000281 0.092503 0.233441
0.000000 0.091877 0.263973
0.000000 0.091125 0.294805
0.000000 0.090228 0.325917
0.000027 0.089165 0.357272
0.000147 0.087916 0.388848
0.000255 0.086451 0.420623
0.000348 0.084733 0.452586
0.000423 0.082712 0.484726
0.000476 0.080317 0.517039
0.000500 0.077438 0.549526
0.000485 0.073893 0.582197
0.000431 0.069700 0.615043
0.000359 0.065182 0.648025
0.000266 0.060330 0.681139
0.000434 0.059764 0.713912
0.000640 0.059833 0.746712
0.000844 0.059901 0.779600
0.001047 0.059969 0.812573
0.001248 0.060036 0.845627
0.001448 0.060102 0.878760
0.001647 0.060168 0.911968
0.001843 0.060234 0.945250
0.002004 0.060288 0.972744
0.002123 0.060327 0.993131
0.002167 0.060342 1.000000
0.004531 0.124006 0.033695
0.004450 0.123967 0.059744
0.004311 0.123906 0.085681
0.004052 0.123798 0.112913
0.003647 0.123633 0.141221
0.003078 0.123403 0.170327
0.002327 0.123100 0.200041
0.001380 0.122717 0.230230
0.001435 0.122252 0.260769
0.001583 0.121693 0.291623
0.001726 0.121029 0.322747
0.001863 0.120251 0.354107
0.001992 0.119347 0.385677
0.002115 0.118304 0.417438
0.002228 0.117107 0.449374
0.002333 0.115736 0.481472
0.002426 0.114169 0.513723
0.002508 0.112376 0.546120
0.002575 0.110318 0.578657
0.002626 0.107942 0.611333
0.002656 0.105174 0.644148
0.002659 0.101902 0.677105
0.002625 0.097937 0.710218
0.002534 0.092927 0.743515
0.002395 0.087030 0.776978
0.002235 0.080767 0.810557
0.002333 0.079168 0.843786
0.002522 0.079231 0.876939
0.002709 0.079293 0.910167
0.002894 0.079355 0.943469
0.003046 0.079405 0.970979
0.003158 0.079443 0.991378
0.003200 0.079457 0.999161
0.005372 0.154618 0.029723
0.005279 0.154593 0.055792
0.005131 0.154550 0.082038
0.004861 0.154469 0.109477
0.004446 0.154343 0.137922
0.003867 0.154165 0.167126
0.003109 0.153928 0.196912
0.003000 0.153633 0.227134
0.003145 0.153271 0.257718
0.003287 0.152834 0.288609
0.003425 0.152318 0.319762
0.003558 0.151716 0.351145
0.003686 0.151019 0.382732
0.003810 0.150222 0.414503
0.003927 0.149316 0.446442
0.004039 0.148290 0.478537
0.004143 0.147133 0.510777
0.004241 0.145833 0.543154
0.004331 0.144372 0.575660
0.004412 0.142733 0.608290
0.004483 0.140891 0.641040
0.004543 0.138816 0.673906
0.004591 0.136469 0.706887
0.004623 0.133797 0.739982
0.004636 0.130725 0.773194
0.004626 0.127140 0.806527
0.004583 0.122864 0.839993
0.004491 0.117566 0.873616
0.004318 0.110628 0.907445
0.004103 0.102840 0.941418
0.004056 0.099090 0.969261
0.004160 0.099125 0.989672
0.004200 0.099138 0.997492
0.005857 0.185845 0.025706
0.005752 0.185828 0.051796
0.005593 0.185797 0.078399
0.005312 0.185735 0.106108
0.004886 0.185635 0.134728
0.004309 0.185492 0.164055
0.004448 0.185306 0.193911
0.004585 0.185069 0.224201
0.004719 0.184777 0.254844
0.004851 0.184424 0.285785
0.004979 0.184008 0.316980
0.005104 0.183523 0.348398
0.005226 0.182964 0.380014
0.005343 0.182327 0.411809
0.005457 0.181606 0.443768
0.005566 0.180795 0.475878
0.005670 0.179886 0.508128
0.005769 0.178874 0.540510
0.005863 0.177748 0.573016
0.005952 0.176500 0.605640
0.006034 0.175118 0.638377
0.006110 0.173588 0.671221
0.006179 0.171895 0.704171
0.006241 0.170020 0.737221
0.006294 0.167938 0.770371
0.006337 0.165619 0.803618
0.006369 0.163025 0.836961
0.006388 0.160102 0.870402
0.006390 0.156779 0.903943
0.006372 0.152947 0.937588
0.006337 0.149288 0.965413
0.006295 0.146196 0.986070
0.006196 0.143023 0.994163
0.005953 0.217527 0.021652
0.005834 0.217515 0.047764
0.005664 0.217492 0.074756
0.005520 0.217443 0.102810
0.005646 0.217364 0.131636
0.005772 0.217250 0.161100
0.005897 0.217096 0.191070
0.006021 0.216900 0.221450
0.006143 0.216657 0.252166
0.006262 0.216364 0.283167
0.006379 0.216019 0.314414
0.006493 0.215617 0.345876
0.006604 0.215155 0.377531
0.006712 0.214629 0.409360
0.006817 0.214035 0.441349
0.006918 0.213369 0.473484
0.007016 0.212627 0.505757
0.007110 0.211804 0.538157
0.007200 0.210894 0.570678
0.007286 0.209892 0.603314
0.007368 0.208790 0.636059
0.007446 0.207582 0.668907
0.007519 0.206258 0.701855
0.007587 0.204810 0.734899
0.007650 0.203225 0.768036
0.007708 0.201490 0.801263
0.007759 0.199590 0.834578
0.007804 0.197505 0.867978
0.007842 0.195212 0.901463
0.007872 0.192680 0.935031
0.007889 0.190387 0.962771
0.007898 0.188552 0.983346
0.007864 0.186771 0.991381
0.006533 0.249565 0.019304
0.006632 0.249555 0.043672
0.006742 0.249537 0.071051
0.006854 0.249498 0.099553
0.006967 0.249432 0.128653
0.007078 0.249335 0.158302
0.007189 0.249204 0.188408
0.007299 0.249037 0.218893
0.007406 0.248831 0.249695
0.007512 0.248582 0.280767
0.007615 0.248288 0.312075
0.007716 0.247947 0.343590
0.007815 0.247555 0.375292
0.007911 0.247110 0.407162
0.008004 0.246608 0.439188
0.008095 0.246047 0.471357
0.008183 0.245423 0.503660
0.008267 0.244734 0.536088
0.008349 0.243974 0.568633
0.008428 0.243140 0.601291
0.008503 0.242228 0.634054
0.008575 0.241233 0.666919
0.008644 0.240150 0.699880
0.008709 0.238972 0.732935
0.008771 0.237693 0.766079
0.008830 0.236306 0.799310
0.008884 0.234803 0.832624
0.008934 0.233173 0.866020
0.008981 0.231404 0.899494
0.009022 0.229485 0.933046
0.009053 0.227778 0.960766
0.009074 0.226435 0.981323
0.009060 0.225151 0.989384
0.007751 0.281880 0.017273
0.007830 0.281868 0.039529
0.007926 0.281853 0.067260
0.008025 0.281820 0.096355
0.008123 0.281762 0.125792
0.008220 0.281678 0.155664
0.008315 0.281564 0.185931
0.008410 0.281419 0.216539
0.008502 0.281239 0.247440
0.008593 0.281023 0.278594
0.008682 0.280768 0.309971
0.008769 0.280472 0.341547
0.008854 0.280133 0.373302
0.008936 0.279749 0.405220
0.009016 0.279316 0.437290
0.009094 0.278833 0.469498
0.009169 0.278297 0.501837
0.009242 0.277705 0.534299
0.009312 0.277055 0.566875
0.009380 0.276344 0.599561
0.009446 0.275569 0.632351
0.009508 0.274726 0.665240
0.009568 0.273811 0.698224
0.009626 0.272821 0.731298
0.009681 0.271752 0.764460
0.009733 0.270598 0.797706
0.009783 0.269354 0.831034
0.009829 0.268015 0.864441
0.009873 0.266574 0.897924
0.009914 0.265023 0.931481
0.009946 0.263656 0.959202
0.009968 0.262590 0.979758
0.009963 0.261577 0.987875
0.008800 0.314415 0.015526
0.008858 0.314401 0.035341
0.008940 0.314386 0.063303
0.009025 0.314356 0.093194
0.009108 0.314304 0.123049
0.009189 0.314229 0.153187
0.009269 0.314128 0.183642
0.009348 0.313998 0.214392
0.009425 0.313839 0.245405
0.009501 0.313648 0.276652
0.009574 0.313423 0.308107
0.009646 0.313162 0.339751
0.009715 0.312863 0.371567
0.009783 0.312524 0.403540
0.009848 0.312145 0.435658
0.009912 0.311721 0.467912
0.009973 0.311252 0.500292
0.010033 0.310735 0.532792
0.010090 0.310169 0.565405
0.010145 0.309550 0.598124
0.010198 0.308877 0.630946
0.010248 0.308147 0.663864
0.010297 0.307357 0.696876
0.010343 0.306505 0.729977
0.010388 0.305588 0.763163
0.010430 0.304601 0.796432
0.010470 0.303542 0.829781
0.010509 0.302406 0.863208
0.010545 0.301190 0.896709
0.010579 0.299889 0.930282
0.010605 0.298748 0.958016
0.010624 0.297862 0.978580
0.010624 0.297025 0.986770
0.009672 0.347128 0.014073
0.009712 0.347112 0.031102
0.009778 0.347097 0.059107
0.009849 0.347068 0.090032
0.009917 0.347020 0.120410
0.009982 0.346951 0.150867
0.010047 0.346859 0.181541
0.010109 0.346741 0.212454
0.010170 0.346597 0.243594
0.010229 0.346425 0.274945
0.010287 0.346223 0.306489
0.010342 0.345989 0.338209
0.010396 0.345721 0.370091
0.010448 0.345419 0.402123
0.010498 0.345080 0.434296
0.010546 0.344703 0.466599
0.010592 0.344286 0.499026
0.010637 0.343828 0.531569
0.010679 0.343326 0.564222
0.010720 0.342779 0.596979
0.010759 0.342185 0.629837
0.010796 0.341542 0.662789
0.010831 0.340848 0.695833
0.010865 0.340101 0.728965
0.010896 0.339298 0.762181
0.010926 0.338438 0.795478
0.010954 0.337516 0.828854
0.010981 0.336531 0.862305
0.011006 0.335480 0.895830
0.011029 0.334359 0.929426
0.011048 0.333380 0.957178
0.011060 0.332621 0.977755
0.011062 0.331909 0.986036
0.010364 0.379990 0.012920
0.010394 0.379973 0.029677
0.010439 0.379955 0.054834
0.010494 0.379927 0.086814
0.010546 0.379881 0.117857
0.010595 0.379815 0.148695
0.010643 0.379729 0.179625
0.010688 0.379621 0.210725
0.010733 0.379488 0.242010
0.010775 0.379331 0.273477
0.010816 0.379146 0.305118
0.010855 0.378933 0.336922
0.010892 0.378690 0.368878
0.010928 0.378417 0.400976
0.010962 0.378110 0.433208
0.010994 0.377770 0.465565
0.011024 0.377395 0.498042
0.011053 0.376982 0.530632
0.011080 0.376532 0.563329
0.011105 0.376041 0.596128
0.011129 0.375510 0.629025
0.011151 0.374936 0.662015
0.011171 0.374317 0.695095
0.011190 0.373652 0.728261
0.011207 0.372938 0.761510
0.011223 0.372175 0.794839
0.011238 0.371360 0.828245
0.011251 0.370491 0.861726
0.011263 0.369565 0.895280
0.011273 0.368581 0.928903
0.011281 0.367724 0.956677
0.011286 0.367061 0.977269
0.011287 0.366441 0.985655
0.010871 0.412976 0.012074
0.010892 0.412958 0.028848
0.010918 0.412937 0.050490
0.010956 0.412908 0.083455
0.010991 0.412862 0.115362
0.011024 0.412799 0.146663
0.011054 0.412718 0.177891
0.011083 0.412615 0.209203
0.011110 0.412492 0.240651
0.011135 0.412345 0.272249
0.011159 0.412174 0.303998
0.011181 0.411978 0.335894
0.011202 0.411755 0.367929
0.011220 0.411503 0.400099
0.011237 0.411223 0.432395
0.011253 0.410912 0.464812
0.011266 0.410570 0.497343
0.011279 0.410195 0.529983
0.011289 0.409785 0.562728
0.011298 0.409341 0.595572
0.011306 0.408859 0.628511
0.011312 0.408340 0.661542
0.011316 0.407781 0.694660
0.011320 0.407182 0.727864
0.011322 0.406540 0.761149
0.011322 0.405854 0.794513
0.011322 0.405124 0.827952
0.011322 0.404346 0.861463
0.011322 0.403521 0.895043
0.011322 0.402644 0.928690
0.011322 0.401883 0.956482
0.011322 0.401295 0.977086
0.011322 0.400748 0.985590
0.011190 0.446067 0.011542
0.011202 0.446048 0.028331
0.011213 0.446025 0.046067
0.011233 0.445993 0.079818
0.011250 0.445947 0.112889
0.011265 0.445885 0.144754
0.011278 0.445806 0.176331
0.011289 0.445708 0.207887
0.011299 0.445591 0.239518
0.011307 0.445452 0.271261
0.011313 0.445292 0.303129
0.011318 0.445109 0.335125
0.011321 0.444901 0.367249
0.011322 0.444668 0.399495
0.011322 0.444408 0.431861
0.011322 0.444122 0.464337
0.011322 0.443807 0.496921
0.011322 0.443464 0.529608
0.011322 0.443090 0.562392
0.011322 0.442685 0.595271
0.011322 0.442247 0.628240
0.011322 0.441776 0.661297
0.011322 0.441270 0.694438
0.011322 0.440728 0.727659
0.011322 0.440149 0.760959
0.011322 0.439532 0.794334
0.011322 0.438874 0.827783
0.011322 0.438176 0.861302
0.011322 0.437435 0.894890
0.011322 0.436649 0.928545
0.011322 0.435968 0.956342
0.011322 0.435442 0.976950
0.011322 0.434953 0.985583
0.011319 0.479247 0.011327
0.011321 0.479227 0.028133
0.011322 0.479203 0.044597
0.011322 0.479168 0.075650
0.011322 0.479120 0.110379
0.011322 0.479059 0.142940
0.011322 0.478982 0.174920
0.011322 0.478890 0.206744
0.011322 0.478780 0.238567
0.011322 0.478651 0.270454
0.011322 0.478502 0.302434
0.011322 0.478333 0.334519
0.011322 0.478143 0.366712
0.011322 0.477930 0.399015
0.011322 0.477693 0.431426
0.011322 0.477432 0.463941
0.011322 0.477145 0.496558
0.011322 0.476832 0.529273
0.011322 0.476491 0.562083
0.011322 0.476122 0.594983
0.011322 0.475724 0.627972
0.011322 0.475295 0.661046
0.011322 0.474835 0.694202
0.011322 0.474342 0.727438
0.011322 0.473817 0.760750
0.011322 0.473256 0.794137
0.011322 0.472660 0.827596
0.011322 0.472027 0.861125
0.011322 0.471357 0.894722
0.011322 0.470646 0.928384
0.011322 0.470030 0.956188
0.011322 0.469556 0.976800
0.011322 0.469115 0.985575
0.011322 0.512525 0.011322
0.011322 0.512507 0.028130
0.011322 0.512484 0.044596
0.011322 0.512452 0.070904
0.011322 0.512408 0.107560
0.011322 0.512352 0.140978
0.011322 0.512282 0.173416
0.011322 0.512197 0.205530
0.011322 0.512095 0.237554
0.011322 0.511977 0.269590
0.011322 0.511841 0.301683
0.011322 0.511686 0.333858
0.011322 0.511511 0.366124
0.011322 0.511315 0.398487
0.011322 0.511098 0.430948
0.011322 0.510858 0.463506
0.011322 0.510595 0.496159
0.011322 0.510308 0.528906
0.011322 0.509996 0.561743
0.011322 0.509658 0.594668
0.011322 0.509293 0.627678
0.011322 0.508901 0.660771
0.011322 0.508480 0.693944
0.011322 0.508030 0.727195
0.011322 0.507549 0.760522
0.011322 0.507037 0.793921
0.011322 0.506493 0.827391
0.011322 0.505916 0.860931
0.011322 0.505304 0.894537
0.011322 0.504657 0.928209
0.011322 0.504097 0.956019
0.011322 0.503666 0.976636
0.011322 0.503264 0.985567
0.011322 0.545934 0.011322
0.011322 0.545917 0.028130
0.011322 0.545896 0.044596
0.011322 0.545866 0.065731
0.011322 0.545826 0.104186
0.011322 0.545774 0.138734
0.011322 0.545709 0.171726
0.011322 0.545630 0.204178
0.011322 0.545537 0.236433
0.011322 0.545428 0.268636
0.011322 0.545302 0.300858
0.011322 0.545159 0.333132
0.011322 0.544998 0.365479
0.011322 0.544817 0.397909
0.011322 0.544617 0.430425
0.011322 0.544396 0.463030
0.011322 0.544154 0.495723
0.011322 0.543889 0.528504
0.011322 0.543602 0.561371
0.011322 0.543290 0.594323
0.011322 0.542955 0.627357
0.011322 0.542593 0.660471
0.011322 0.542206 0.693663
0.011322 0.541792 0.726930
0.011322 0.541351 0.760272
0.011322 0.540881 0.793685
0.011322 0.540381 0.827168
0.011322 0.539851 0.860719
0.011322 0.539290 0.894336
0.011322 0.538698 0.928017
0.011322 0.538184 0.955834
0.011322 0.537789 0.976457
0.011322 0.537422 0.985558
0.011322 0.579463 0.011322
0.011322 0.579448 0.028130
0.011322 0.579428 0.044596
0.011322 0.579401 0.062075
0.011322 0.579363 0.100047
0.011322 0.579315 0.136155
0.011322 0.579255 0.169828
0.011322 0.579182 0.202677
0.011322 0.579096 0.235196
0.011322 0.578995 0.267589
0.011322 0.578878 0.299953
0.011322 0.578746 0.332339
0.011322 0.578596 0.364775
0.011322 0.578429 0.397278
0.011322 0.578244 0.429855
0.011322 0.578039 0.462511
0.011322 0.577815 0.495248
0.011322 0.577570 0.528067
0.011322 0.577304 0.560967
0.011322 0.577016 0.593948
0.011322 0.576706 0.627008
0.011322 0.576372 0.660144
0.011322 0.576014 0.693357
0.011322 0.575632 0.726643
0.011322 0.575224 0.760001
0.011322 0.574790 0.793429
0.011322 0.574329 0.826925
0.011322 0.573840 0.860489
0.011322 0.573324 0.894117
0.011322 0.572777 0.927809
0.011322 0.572305 0.955634
0.011322 0.571941 0.976262
0.011322 0.571603 0.985549
0.011322 0.613108 0.011322
0.011322 0.613093 0.028130
0.011322 0.613075 0.044596
0.011322 0.613049 0.062075
0.011322 0.613014 0.094742
0.011322 0.612970 0.133168
0.011322 0.612914 0.167693
0.011322 0.612846 0.201012
0.011322 0.612766 0.233834
0.011322 0.612672 0.266441
0.011322 0.612563 0.298964
0.011322 0.612440 0.331474
0.011322 0.612301 0.364009
0.011322 0.612146 0.396592
0.011322 0.611973 0.429236
0.011322 0.611783 0.461948
0.011322 0.611575 0.494733
0.011322 0.611348 0.527594
0.011322 0.611100 0.560530
0.011322 0.610833 0.593542
0.011322 0.610545 0.626629
0.011322 0.610235 0.659791
0.011322 0.609903 0.693025
0.011322 0.609548 0.726331
0.011322 0.609170 0.759707
0.011322 0.608768 0.793151
0.011322 0.608341 0.826663
0.011322 0.607888 0.860240
0.011322 0.607409 0.893880
0.011322 0.606904 0.927583
0.011322 0.606466 0.955418
0.011322 0.606130 0.976052
0.011322 0.605817 0.985538
0.011322 0.646859 0.011322
0.011322 0.646846 0.028130
0.011322 0.646829 0.044596
0.011322 0.646805 0.062075
0.011322 0.646772 0.088217
0.011322 0.646730 0.129664
0.011322 0.646678 0.165285
0.011322 0.646615 0.199164
0.011322 0.646540 0.232337
0.011322 0.646452 0.265185
0.011322 0.646351 0.297887
0.011322 0.646236 0.330534
0.011322 0.646107 0.363178
0.011322 0.645962 0.395849
0.011322 0.645801 0.428565
0.011322 0.645624 0.461339
0.011322 0.645430 0.494177
0.011322 0.645218 0.527082
0.011322 0.644987 0.560057
0.011322 0.644738 0.593104
0.011322 0.644469 0.626221
0.011322 0.644181 0.659410
0.011322 0.643872 0.692668
0.011322 0.643541 0.725995
0.011322 0.643189 0.759391
0.011322 0.642815 0.792853
0.011322 0.642417 0.826380
0.011322 0.641996 0.859971
0.011322 0.641551 0.893625
0.011322 0.641081 0.927341
0.011322 0.640675 0.955184
0.011322 0.640362 0.975825
0.011322 0.640072 0.985527
0.011322 0.680713 0.011322
0.011322 0.680700 0.028130
0.011322 0.680684 0.044596
0.011322 0.680662 0.062075
0.011322 0.680631 0.081210
0.011322 0.680592 0.125474
0.011322 0.680544 0.162557
0.011322 0.680484 0.197114
0.011322 0.680414 0.230692
0.011322 0.680332 0.263815
0.011322 0.680238 0.296716
0.011322 0.680130 0.329515
0.011322 0.680009 0.362278
0.011322 0.679873 0.395046
0.011322 0.679723 0.427842
0.011322 0.679557 0.460683
0.011322 0.679375 0.493577
0.011322 0.679177 0.526531
0.011322 0.678961 0.559549
0.011322 0.678728 0.592632
0.011322 0.678477 0.625782
0.011322 0.678208 0.659000
0.011322 0.677919 0.692284
0.011322 0.677610 0.725634
0.011322 0.677281 0.759050
0.011322 0.676931 0.792531
0.011322 0.676560 0.826076
0.011322 0.676167 0.859683
0.011322 0.675752 0.893351
0.011322 0.675313 0.927080
0.011322 0.674934 0.954934
0.011322 0.674643 0.975582
0.011322 0.674372 0.985515
0.011322 0.714663 0.011322
0.011322 0.714651 0.028130
0.011322 0.714637 0.044596
0.011322 0.714615 0.062075
0.011322 0.714587 0.080341
0.011322 0.714550 0.120294
0.011322 0.714504 0.159444
0.011322 0.714449 0.194833
0.011322 0.714383 0.228885
0.011322 0.714306 0.262321
0.011322 0.714217 0.295445
0.011322 0.714116 0.328412
0.011322 0.714002 0.361307
0.011322 0.713875 0.394180
0.011322 0.713734 0.427063
0.011322 0.713579 0.459977
0.011322 0.713408 0.492932
0.011322 0.713222 0.525939
0.011322 0.713020 0.559003
0.011322 0.712801 0.592126
0.011322 0.712566 0.625311
0.011322 0.712313 0.658560
0.011322 0.712042 0.691872
0.011322 0.711753 0.725247
0.011322 0.711445 0.758686
0.011322 0.711117 0.792187
0.011322 0.710769 0.825750
0.011322 0.710401 0.859374
0.011322 0.710012 0.893058
0.011322 0.709602 0.926801
0.011322 0.709247 0.954665
0.011322 0.708975 0.975321
0.011322 0.708722 0.985501
0.011322 0.748706 0.011322
0.011322 0.748695 0.028130
0.011322 0.748681 0.044596
0.011322 0.748661 0.062075
0.011322 0.748634 0.080341
0.011322 0.748600 0.113475
0.011322 0.748556 0.155854
0.011322 0.748504 0.192290
0.011322 0.748442 0.226901
0.011322 0.748370 0.260693
0.011322 0.748286 0.294067
0.011322 0.748191 0.327220
0.011322 0.748084 0.360260
0.011322 0.747964 0.393249
0.011322 0.747832 0.426227
0.011322 0.747685 0.459219
0.011322 0.747525 0.492242
0.011322 0.747350 0.525305
0.011322 0.747160 0.558418
0.011322 0.746954 0.591584
0.011322 0.746733 0.624808
0.011322 0.746495 0.658090
0.011322 0.746241 0.691432
0.011322 0.745969 0.724834
0.011322 0.745679 0.758296
0.011322 0.745371 0.791820
0.011322 0.745045 0.825402
0.011322 0.744699 0.859044
0.011322 0.744334 0.892745
0.011322 0.743948 0.926503
0.011322 0.743615 0.954379
0.011322 0.743360 0.975042
0.011322 0.743122 0.985487
0.011322 0.782837 0.011322
0.011322 0.782826 0.028130
0.011322 0.782813 0.044596
0.011322 0.782795 0.062075
0.011322 0.782769 0.080341
0.011322 0.782737 0.104972
0.011322 0.782696 0.151647
0.011322 0.782647 0.189442
0.011322 0.782588 0.224719
0.011322 0.782520 0.258920
0.011322 0.782441 0.292576
0.011322 0.782351 0.325936
0.011322 0.782250 0.359135
0.011322 0.782138 0.392250
0.011322 0.782012 0.425331
0.011322 0.781874 0.458408
0.011322 0.781723 0.491503
0.011322 0.781558 0.524628
0.011322 0.781379 0.557794
0.011322 0.781185 0.591006
0.011322 0.780977 0.624270
0.011322 0.780752 0.657588
0.011322 0.780513 0.690962
0.011322 0.780256 0.724393
0.011322 0.779983 0.757881
0.011322 0.779693 0.791428
0.011322 0.779386 0.825032
0.011322 0.779060 0.858693
0.011322 0.778716 0.892411
0.011322 0.778354 0.926185
0.011322 0.778040 0.954074
0.011322 0.777800 0.974746
0.011322 0.777576 0.985473
0.011322 0.817053 0.011322
0.011322 0.817043 0.028130
0.011322 0.817030 0.044596
0.011322 0.817012 0.062075
0.011322 0.816989 0.080341
0.011322 0.816958 0.099175
0.011322 0.816919 0.146592
0.011322 0.816873 0.186232
0.011322 0.816817 0.222315
0.011322 0.816753 0.256989
0.011322 0.816678 0.290962
0.011322 0.816593 0.324552
0.011322 0.816498 0.357926
0.011322 0.816391 0.391180
0.011322 0.816273 0.424372
0.011322 0.816142 0.457542
0.011322 0.816000 0.490714
0.011322 0.815844 0.523905
0.011322 0.815674 0.557128
0.011322 0.815491 0.590390
0.011322 0.815294 0.623698
0.011322 0.815083 0.657054
0.011322 0.814856 0.690462
0.011322 0.814614 0.723924
0.011322 0.814356 0.757440
0.011322 0.814082 0.791011
0.011322 0.813792 0.824637
0.011322 0.813485 0.858319
0.011322 0.813160 0.892056
0.011322 0.812818 0.925848
0.011322 0.812522 0.953749
0.011322 0.812295 0.974431
0.011322 0.812084 0.993111
0.011322 0.851350 0.011322
0.011322 0.851340 0.028130
0.011322 0.851328 0.044596
0.011322 0.851312 0.062075
0.011322 0.851289 0.080341
0.011322 0.851260 0.099175
0.011322 0.851223 0.140251
0.011322 0.851179 0.182582
0.011322 0.851127 0.219658
0.011322 0.851065 0.254884
0.011322 0.850995 0.289217
0.011322 0.850915 0.323063
0.011322 0.850824 0.356630
0.011322 0.850723 0.390034
0.011322 0.850611 0.423348
0.011322 0.850487 0.456618
0.011322 0.850352 0.489874
0.011322 0.850204 0.523136
0.011322 0.850044 0.556420
0.011322 0.849871 0.589735
0.011322 0.849684 0.623089
0.011322 0.849484 0.656487
0.011322 0.849269 0.689931
0.011322 0.849040 0.723426
