luts/iPhone_15_Pro_Standard.cube
# Generated by ComfyUI-CameraForensicRealism
# iPhone 15 Pro ISP Color Science LUT
TITLE "iPhone 15 Pro Standard"
LUT_3D_SIZE 9
DOMAIN_MIN 0.0 0.0 0.0
DOMAIN_MAX 1.0 1.0 1.0
0.000000 0.011122 0.048927
0.000000 0.009889 0.155016
0.000000 0.006144 0.274171
0.000000 0.005733 0.398327
0.000000 0.006060 0.525381
0.000000 0.006382 0.654532
0.000000 0.006698 0.785320
0.000000 0.007007 0.917471
0.000000 0.007208 1.000000
0.004531 0.124006 0.033695
0.003647 0.123633 0.141221
0.001435 0.122252 0.260769
0.001992 0.119347 0.385677
0.002426 0.114169 0.513723
0.002656 0.105174 0.644148
0.002395 0.087030 0.776978
0.002709 0.079293 0.910167
0.003200 0.079457 0.999161
0.006533 0.249565 0.019304
0.006967 0.249432 0.128653
0.007406 0.248831 0.249695
0.007815 0.247555 0.375292
0.008183 0.245423 0.503660
0.008503 0.242228 0.634054
0.008771 0.237693 0.766079
0.008981 0.231404 0.899494
0.009060 0.225151 0.989384
0.010364 0.379990 0.012920
0.010546 0.379881 0.117857
0.010733 0.379488 0.242010
0.010892 0.378690 0.368878
0.011024 0.377395 0.498042
0.011129 0.375510 0.629025
0.011207 0.372938 0.761510
0.011263 0.369565 0.895280
0.011287 0.366441 0.985655
0.011322 0.512525 0.011322
0.011322 0.512408 0.107560
0.011322 0.512095 0.237554
0.011322 0.511511 0.366124
0.011322 0.510595 0.496159
0.011322 0.509293 0.627678
0.011322 0.507549 0.760522
0.011322 0.505304 0.894537
0.011322 0.503264 0.985567
0.011322 0.646859 0.011322
0.011322 0.646772 0.088217
0.011322 0.646540 0.232337
0.011322 0.646107 0.363178
0.011322 0.645430 0.494177
0.011322 0.644469 0.626221
0.011322 0.643189 0.759391
0.011322 0.641551 0.893625
0.011322 0.640072 0.985527
0.011322 0.782837 0.011322
0.011322 0.782769 0.080341
0.011322 0.782588 0.224719
0.011322 0.782250 0.359135
0.011322 0.781723 0.491503
0.011322 0.780977 0.624270
0.011322 0.779983 0.757881
0.011322 0.778716 0.892411
0.011322 0.777576 0.985473
0.011322 0.920175 0.011322
0.011322 0.920120 0.080341
0.011322 0.919974 0.213425
0.011322 0.919701 0.353753
0.011322 0.919275 0.488030
0.011595 0.918764 0.621579
0.012169 0.918155 0.755384
0.012737 0.917325 0.889917
0.013156 0.916549 0.990854
0.012147 0.992829 0.010772
0.012461 0.992931 0.079582
0.013019 0.993111 0.201858
0.013685 0.993320 0.347910
0.014302 0.993507 0.483363
0.014912 0.993684 0.617449
0.015523 0.993852 0.751679
0.016136 0.994010 0.886475
0.016595 0.994122 0.987545
0.113599 0.010418 0.043241
0.113726 0.009177 0.150273
0.112802 0.006280 0.269617
0.110600 0.006562 0.393999
0.106168 0.006828 0.521415
0.098052 0.007067 0.651014
0.081166 0.007248 0.782499
0.071782 0.007474 0.915076
0.072352 0.007664 1.000000
0.120205 0.124059 0.028903
0.120199 0.123665 0.137388
0.119163 0.122250 0.257323
0.116510 0.119262 0.382525
0.111473 0.113945 0.510840
0.102435 0.104662 0.641579
0.083746 0.085893 0.774900
0.075849 0.079672 0.908215
0.076307 0.079824 0.997321
0.123794 0.249708 0.017140
0.123549 0.249548 0.125953
0.122248 0.248917 0.247489
0.119294 0.247604 0.373363
0.113870 0.245427 0.501969
0.104123 0.242174 0.632614
0.084359 0.237552 0.764983
0.081549 0.231212 0.898496
0.081617 0.224914 0.988460
0.122762 0.379983 0.012069
0.122215 0.379852 0.116371
0.120497 0.379435 0.241076
0.116932 0.378610 0.368196
0.110475 0.377287 0.497542
0.098198 0.375376 0.628675
0.083307 0.372780 0.761278
0.083325 0.369389 0.895125
0.083327 0.366250 0.985593
0.115923 0.512403 0.011322
0.115120 0.512286 0.106606
0.112887 0.511973 0.237227
0.108294 0.511388 0.365936
0.099392 0.510471 0.496031
0.083327 0.509168 0.627584
0.083327 0.507422 0.760448
0.083327 0.505176 0.894478
0.083327 0.503134 0.985565
0.102124 0.646768 0.011322
0.100870 0.646681 0.086700
0.097189 0.646449 0.231984
0.089764 0.646016 0.362983
0.083327 0.645338 0.494047
0.083327 0.644377 0.626126
0.083327 0.643097 0.759317
0.083327 0.641458 0.893566
0.083327 0.639978 0.985524
0.083327 0.782766 0.011322
0.083327 0.782698 0.080341
0.083327 0.782517 0.224321
0.083327 0.782179 0.358932
0.083327 0.781652 0.491370
0.083327 0.780905 0.624174
0.083327 0.779912 0.757807
0.083327 0.778644 0.892351
0.083327 0.777503 0.985470
0.083327 0.920118 0.011322
0.083327 0.920063 0.080341
0.083327 0.919916 0.212940
0.083388 0.919664 0.353499
0.083980 0.919435 0.487459
0.084561 0.919026 0.620840
0.085135 0.918417 0.754669
0.085703 0.917587 0.889216
0.086122 0.916811 0.990161
0.085116 0.993148 0.010129
0.085430 0.993250 0.078939
0.085985 0.993429 0.200618
0.086652 0.993639 0.347044
0.087270 0.993826 0.482582
0.087881 0.994003 0.616708
0.088492 0.994170 0.750961
0.089105 0.994329 0.885772
0.089564 0.994441 0.986850
0.241917 0.007042 0.035119
0.242383 0.006883 0.144500
0.242456 0.007153 0.264440
0.241869 0.007421 0.389212
0.240431 0.007680 0.516815
0.237935 0.007928 0.646456
0.234112 0.008164 0.777723
0.228569 0.008384 0.910367
0.222876 0.008517 0.999644
0.248408 0.123017 0.023345
0.248647 0.122582 0.132575
0.248403 0.121086 0.253516
0.247422 0.117948 0.379099
0.245492 0.112339 0.507585
0.242330 0.102344 0.638350
0.237430 0.082378 0.771399
0.231607 0.080390 0.904464
0.225777 0.080493 0.993970
0.252350 0.249305 0.015179
0.252360 0.249119 0.122271
0.251905 0.248459 0.244923
0.250751 0.247113 0.371219
0.248715 0.244897 0.500046
0.245590 0.241601 0.630796
0.241102 0.236939 0.763117
0.234839 0.230478 0.896782
0.228585 0.224046 0.986990
0.252745 0.379616 0.011485
0.252510 0.379462 0.113817
0.251780 0.379017 0.239882
0.250342 0.378165 0.367472
0.248028 0.376816 0.497075
0.244633 0.374885 0.628354
0.239868 0.372270 0.761047
0.233292 0.368855 0.894961
0.226762 0.365699 0.985586
0.249912 0.512071 0.011322
0.249615 0.511953 0.103864
0.248818 0.511639 0.236332
0.247310 0.511053 0.365421
0.244897 0.510134 0.495684
0.241345 0.508828 0.627328
0.236336 0.507078 0.760249
0.229365 0.504826 0.894317
0.222361 0.502778 0.985557
0.245566 0.646522 0.011322
0.245251 0.646435 0.082579
0.244404 0.646202 0.231016
0.242800 0.645768 0.362454
0.240224 0.645089 0.493694
0.236414 0.644127 0.625868
0.230994 0.642845 0.759117
0.223340 0.641203 0.893405
0.215470 0.639721 0.985517
0.239362 0.782574 0.011322
0.239017 0.782506 0.080341
0.238090 0.782325 0.223229
0.236328 0.781986 0.358381
0.233484 0.781458 0.491011
0.229237 0.780711 0.623913
0.223100 0.779716 0.757606
0.214178 0.778448 0.892190
0.204539 0.777306 0.993226
0.231044 0.920126 0.010995
0.230955 0.920173 0.079810
0.230464 0.920218 0.210686
0.229028 0.920146 0.351640
0.226249 0.919903 0.485842
0.221703 0.919471 0.619372
0.214609 0.918828 0.753330
0.203191 0.917944 0.888023
0.188355 0.917100 0.989124
0.226616 0.993764 0.008883
0.226473 0.993865 0.077696
0.225784 0.994035 0.197723
0.224077 0.994236 0.345226
0.220762 0.994406 0.481030
0.215238 0.994556 0.615318
0.206188 0.994682 0.749720
0.189291 0.994763 0.884727
0.171568 0.994795 0.985986
0.376167 0.007499 0.030440
0.376675 0.007724 0.136919
0.376972 0.007972 0.258805
0.376866 0.008215 0.384308
0.376259 0.008452 0.512317
0.375057 0.008679 0.642228
0.373160 0.008896 0.773689
0.370455 0.009103 0.906473
0.367780 0.009233 0.996052
0.381900 0.120261 0.020527
0.382167 0.119750 0.126438
0.382155 0.118094 0.249380
0.381672 0.114626 0.375681
0.380593 0.108324 0.504552
0.378732 0.096392 0.635599
0.376067 0.080784 0.768361
0.373200 0.080938 0.901424
0.370416 0.081034 0.991249
0.385480 0.248112 0.013594
0.385524 0.247895 0.117130
0.385298 0.247196 0.242007
0.384645 0.245797 0.369054
0.383476 0.243511 0.498283
0.381701 0.240118 0.629292
0.379226 0.235320 0.761790
0.375938 0.228655 0.895573
0.372862 0.221993 0.986064
0.385750 0.378739 0.011322
0.385580 0.378567 0.109487
0.385126 0.378106 0.238239
0.384275 0.377242 0.366521
0.382935 0.375883 0.496428
0.381016 0.373934 0.627877
0.378420 0.371295 0.760676
0.375032 0.367847 0.894661
0.371903 0.364659 0.985573
0.384023 0.511446 0.011322
0.383851 0.511328 0.097932
0.383389 0.511013 0.234623
0.382525 0.510424 0.364452
0.381163 0.509501 0.495030
0.379213 0.508189 0.626848
0.376572 0.506431 0.759876
0.373122 0.504168 0.894017
0.369933 0.502111 0.985544
0.381538 0.646059 0.011322
0.381361 0.645972 0.080341
0.380889 0.645738 0.229166
0.380004 0.645303 0.361456
0.378610 0.644623 0.493031
0.376612 0.643658 0.625384
0.373904 0.642372 0.758742
0.370362 0.640726 0.893103
0.367082 0.639240 0.985503
0.378151 0.782213 0.011322
0.377969 0.782145 0.080341
0.377482 0.781963 0.221128
0.376568 0.781625 0.357342
0.375128 0.781096 0.490334
0.373061 0.780347 0.623423
0.370256 0.779351 0.757228
0.366580 0.778080 0.891886
0.363458 0.777032 0.992772
0.376085 0.920469 0.009726
0.376204 0.920517 0.078539
0.376267 0.920561 0.206814
0.375937 0.920495 0.349257
0.375006 0.920260 0.483848
0.373396 0.919841 0.617548
0.370990 0.919218 0.751580
0.367640 0.918369 0.886279
0.364412 0.917575 0.987319
0.375824 0.994409 0.007568
0.375939 0.994510 0.076380
0.375937 0.994678 0.193106
0.375617 0.994889 0.342742
0.374656 0.995070 0.478968
0.372993 0.995237 0.613427
0.370506 0.995391 0.747889
0.367036 0.995532 0.882855
0.363682 0.995627 0.984030
0.513340 0.008299 0.026439
0.513793 0.008488 0.127187
0.514164 0.008714 0.252616
0.514242 0.008932 0.379256
0.513971 0.009141 0.507865
0.513295 0.009342 0.638170
0.512157 0.009533 0.769926
0.510499 0.009715 0.902946
0.508846 0.009830 0.993046
0.518146 0.114949 0.018183
0.518379 0.114307 0.118163
0.518448 0.112330 0.244787
0.518159 0.108144 0.372220
0.517414 0.100125 0.501701
0.516049 0.084581 0.633199
0.514636 0.081252 0.765438
0.512816 0.081380 0.898744
0.511054 0.081460 0.989099
0.521200 0.245925 0.012427
0.521221 0.245673 0.109510
0.521065 0.244924 0.238555
0.520607 0.243451 0.366769
0.519793 0.241059 0.496585
0.518574 0.237513 0.627959
0.516897 0.232490 0.760708
0.514711 0.225475 0.894667
0.512708 0.218397 0.985623
0.521114 0.377303 0.011322
0.520998 0.377129 0.101544
0.520688 0.376661 0.235626
0.520109 0.375786 0.365019
0.519201 0.374407 0.495412
0.517911 0.372431 0.627128
0.516184 0.369753 0.760094
0.513961 0.366252 0.894192
0.511942 0.363012 0.985552
0.519938 0.510465 0.011322
0.519821 0.510347 0.086196
0.519509 0.510029 0.231867
0.518925 0.509436 0.362919
0.518010 0.508507 0.494004
0.516709 0.507185 0.626095
0.514967 0.505415 0.759293
0.512725 0.503135 0.893546
0.510688 0.501062 0.985523
0.518261 0.645334 0.011322
0.518142 0.645246 0.080341
0.517826 0.645012 0.226164
0.517235 0.644575 0.359877
0.516309 0.643892 0.491990
0.514993 0.642923 0.624624
0.513229 0.641631 0.758155
0.510959 0.639978 0.892631
0.508896 0.638486 0.985482
0.516006 0.781648 0.011322
0.515886 0.781580 0.080341
0.515564 0.781398 0.217689
0.514964 0.781058 0.355695
0.514202 0.780588 0.489152
0.513419 0.780022 0.622165
0.512167 0.779203 0.755787
0.510383 0.778104 0.890212
0.508663 0.777083 0.991100
0.517333 0.920628 0.008495
0.517520 0.920676 0.077307
0.517746 0.920714 0.201235
0.517774 0.920654 0.346281
0.517399 0.920421 0.481518
0.516597 0.920005 0.615522
0.515316 0.919386 0.749727
0.513493 0.918541 0.884531
0.511735 0.917752 0.985623
0.518366 0.995016 0.006313
0.518554 0.995118 0.075124
0.518722 0.995278 0.186112
0.518791 0.995496 0.339657
0.518425 0.995681 0.476590
0.517631 0.995852 0.611367
0.516355 0.996012 0.746005
0.514535 0.996160 0.881077
0.512778 0.996262 0.982304
0.652414 0.009016 0.022855
0.652773 0.009164 0.113342
0.653168 0.009372 0.245680
0.653313 0.009562 0.373992
0.653191 0.009743 0.503424
0.652765 0.009915 0.634250
0.651996 0.010077 0.766385
0.650846 0.010230 0.899708
0.649687 0.010327 0.990532
0.656189 0.105212 0.016381
0.656359 0.104273 0.105613
0.656451 0.101462 0.239560
0.656213 0.095081 0.368712
0.655591 0.083689 0.499062
0.654939 0.081518 0.630311
0.654007 0.081627 0.762745
0.652694 0.081725 0.896358
0.651425 0.081786 0.987441
0.658710 0.242511 0.011684
0.658691 0.242221 0.096488
0.658542 0.241407 0.234312
0.658161 0.239830 0.364252
0.657517 0.237281 0.494874
0.656576 0.233502 0.626728
0.655317 0.228125 0.759784
0.653706 0.220536 0.893942
0.652252 0.212737 0.985541
0.658373 0.375240 0.011322
0.658287 0.375062 0.085722
0.658058 0.374586 0.231756
0.657630 0.373693 0.362858
0.656962 0.372287 0.493963
0.656015 0.370270 0.626065
0.654751 0.367535 0.759270
0.653135 0.363954 0.893528
0.651677 0.360636 0.985522
0.657505 0.509068 0.011322
0.657418 0.508948 0.080341
0.657188 0.508627 0.227764
0.656758 0.508028 0.360713
0.656087 0.507090 0.492540
0.655135 0.505754 0.625025
0.653865 0.503965 0.758465
0.652241 0.501661 0.892880
0.650775 0.499566 0.985494
0.656271 0.644304 0.011322
0.656184 0.644215 0.080341
0.655952 0.643980 0.221659
0.655519 0.643540 0.357602
0.654843 0.642853 0.490503
0.653884 0.641879 0.623545
0.652606 0.640579 0.757322
0.650970 0.638916 0.891962
0.649494 0.637414 0.993029
0.654622 0.780848 0.011322
0.654746 0.780850 0.080200
0.655102 0.780864 0.211903
0.655284 0.780729 0.352372
0.655180 0.780390 0.486422
0.654774 0.779823 0.619855
0.654032 0.779003 0.753724
0.652914 0.777902 0.888310
0.651812 0.776880 0.989283
0.658585 0.920595 0.007269
0.658807 0.920643 0.076081
0.659094 0.920671 0.193077
0.659316 0.920617 0.342539
0.659218 0.920386 0.478734
0.658811 0.919971 0.613183
0.658064 0.919352 0.747644
0.656939 0.918508 0.882611
0.655828 0.917719 0.983790
0.660282 0.995612 0.005063
0.660505 0.995714 0.073874
0.660723 0.995859 0.174835
0.661005 0.996090 0.335761
0.660927 0.996277 0.473749
0.660540 0.996451 0.608990
0.659818 0.996613 0.743891
0.658722 0.996765 0.879129
0.657637 0.996870 0.980443
0.792890 0.009643 0.019720
0.793116 0.009740 0.089437
0.793531 0.009938 0.237689
0.793688 0.010100 0.368428
0.793625 0.010252 0.498955
0.793318 0.010394 0.630444
0.792739 0.010526 0.763048
0.791863 0.010648 0.896735
0.790976 0.010725 0.988500
0.795445 0.084874 0.015320
0.795535 0.083452 0.084079
0.795708 0.081534 0.233418
0.795701 0.081642 0.364658
0.795475 0.081739 0.495547
0.795005 0.081827 0.627356
0.794263 0.081904 0.760262
0.793222 0.081972 0.894242
0.792224 0.082012 0.986271
0.797597 0.237560 0.011349
0.797542 0.237228 0.080348
0.797368 0.236325 0.228892
0.797036 0.234608 0.361310
0.796518 0.231839 0.492935
0.795784 0.227713 0.625313
0.794808 0.221773 0.758687
0.793563 0.213196 0.893059
0.792443 0.204045 0.985501
0.797181 0.372441 0.011322
0.797114 0.372258 0.080341
0.796936 0.371769 0.226246
0.796603 0.370852 0.359919
0.796084 0.369407 0.492017
0.795348 0.367332 0.624644
0.794370 0.364515 0.758170
0.793123 0.360821 0.892643
0.792001 0.357391 0.985483
0.796505 0.507192 0.011322
0.796438 0.507070 0.080341
0.796259 0.506746 0.221877
0.795925 0.506138 0.357709
0.795404 0.505187 0.490573
0.794667 0.503833 0.623596
0.793686 0.502019 0.757361
0.792434 0.499681 0.891993
0.791308 0.497555 0.993056
0.795547 0.642928 0.011322
0.795480 0.642839 0.080341
0.795300 0.642602 0.215096
0.794965 0.642159 0.354501
0.794441 0.641466 0.488506
0.793701 0.640484 0.622103
0.792715 0.639174 0.756212
0.791458 0.637497 0.891072
0.790327 0.635983 0.992259
0.795995 0.780356 0.010172
0.796237 0.780390 0.078985
0.796611 0.780391 0.202814
0.796915 0.780263 0.347920
0.796975 0.779923 0.483171
0.796797 0.779355 0.617181
0.796358 0.778531 0.751388
0.795634 0.777425 0.886193
0.794889 0.776399 0.987284
0.800556 0.920349 0.006044
0.800798 0.920397 0.074856
0.801088 0.920406 0.180361
0.801450 0.920364 0.337865
0.801520 0.920134 0.475416
0.801348 0.919719 0.610475
0.800914 0.919099 0.745285
0.800192 0.918254 0.880477
0.799450 0.917463 0.981775
0.802667 0.996200 0.003810
0.802912 0.996302 0.072620
0.803094 0.996417 0.153259
0.803557 0.996673 0.330873
0.803652 0.996863 0.470356
0.803505 0.997039 0.606236
0.803102 0.997203 0.741496
0.802418 0.997356 0.876962
0.801709 0.997463 0.978396
0.934458 0.010175 0.017058
0.934642 0.010254 0.085682
0.934963 0.010409 0.228134
0.935099 0.010544 0.362444
0.935045 0.010665 0.494407
0.934787 0.010776 0.626724
0.934304 0.010877 0.759895
0.933577 0.010968 0.894013
0.932862 0.011029 0.994737
0.936410 0.081690 0.013690
0.936507 0.081741 0.082458
0.936648 0.081836 0.224647
0.936617 0.081914 0.359518
0.936398 0.081981 0.491853
0.935975 0.082037 0.624494
0.935328 0.082083 0.757970
0.934435 0.082119 0.892383
0.933596 0.082139 0.993324
0.937644 0.230604 0.011322
0.937590 0.230230 0.080341
0.937447 0.229222 0.221461
0.937178 0.227299 0.357505
0.936760 0.224175 0.490440
0.936168 0.219458 0.623499
0.935382 0.212504 0.757287
0.934382 0.201972 0.891933
0.933483 0.189601 0.993005
0.937295 0.368776 0.011322
0.937241 0.368586 0.080341
0.937097 0.368079 0.218462
0.936829 0.367129 0.356059
0.936410 0.365629 0.489506
0.935818 0.363474 0.622823
0.935030 0.360543 0.756766
0.934028 0.356690 0.891516
0.933128 0.353103 0.992643
0.936750 0.504774 0.011322
0.936696 0.504650 0.080341
0.936552 0.504320 0.213439
0.936282 0.503702 0.353759
0.935863 0.502733 0.488034
0.935269 0.501355 0.621763
0.934480 0.499507 0.755951
0.933476 0.497125 0.890862
0.932573 0.494957 0.992078
0.935978 0.641166 0.011322
0.935923 0.641076 0.080341
0.935778 0.640836 0.205414
0.935509 0.640388 0.350414
0.935087 0.639689 0.485927
0.934508 0.638702 0.620244
0.934258 0.637558 0.754423
0.933775 0.636039 0.889215
0.933250 0.634635 0.990303
0.938498 0.779601 0.008957
0.938753 0.779636 0.077769
0.939106 0.779616 0.189140
0.939515 0.779498 0.342426
0.939686 0.779158 0.479326
0.939661 0.778586 0.614097
0.939424 0.777757 0.748744
0.938956 0.776644 0.883833
0.938444 0.775611 0.985078
0.943396 0.919866 0.004818
0.943652 0.919914 0.073629
0.943870 0.919887 0.155274
0.944387 0.919873 0.332058
0.944573 0.919645 0.471484
0.944556 0.919229 0.607351
0.944327 0.918606 0.742616
0.943868 0.917758 0.878099
0.943362 0.916965 0.979553
0.945804 0.996781 0.002550
0.946062 0.996883 0.071360
0.946266 0.996993 0.148628
0.946791 0.997247 0.324762
0.947004 0.997441 0.466328
0.947015 0.997618 0.603055
0.946820 0.997784 0.738781
0.946402 0.997938 0.874543
0.945933 0.998046 0.976136
0.989819 0.010356 0.016153
0.990034 0.010429 0.084809
0.990439 0.010566 0.222490
0.990801 0.010691 0.359334
0.991114 0.010801 0.492187
0.991386 0.010901 0.624986
0.991619 0.010990 0.758468
0.991812 0.011069 0.892813
0.991928 0.011122 0.993674
0.991634 0.081804 0.013122
0.991763 0.081848 0.081922
0.991993 0.081927 0.219283
0.992184 0.081994 0.356735
0.992329 0.082049 0.489969
0.992435 0.082093 0.623098
0.992500 0.082127 0.756891
0.992524 0.082150 0.891538
0.992513 0.082160 0.992621
0.992706 0.225935 0.011322
0.992703 0.225532 0.080341
0.992697 0.224441 0.216413
0.992685 0.222355 0.355103
0.992666 0.218942 0.488891
0.992639 0.213729 0.622380
0.992604 0.205864 0.756425
0.992558 0.193311 0.891242
0.992517 0.176252 0.992407
0.992690 0.366467 0.011322
0.992688 0.366273 0.080341
0.992681 0.365755 0.213124
0.992669 0.364782 0.353620
0.992650 0.363246 0.487946
0.992623 0.361037 0.621700
0.992588 0.358030 0.755903
0.992542 0.354071 0.890823
0.992501 0.350376 0.992044
0.992665 0.503274 0.011322
0.992663 0.503149 0.080341
0.992656 0.502814 0.207542
0.992644 0.502190 0.351261
0.992625 0.501211 0.486456
0.992599 0.499817 0.620632
0.992563 0.497947 0.755084
0.992517 0.495537 0.890168
0.992476 0.493342 0.991478
0.992631 0.640079 0.011322
0.992628 0.639988 0.080341
0.992622 0.639747 0.198367
0.992609 0.639297 0.347823
0.992761 0.638649 0.484209
0.993302 0.637840 0.618621
0.993819 0.636692 0.753062
0.994311 0.635166 0.888020
0.994661 0.633755 0.989195
0.996866 0.779009 0.008468
0.997174 0.779043 0.077279
0.997621 0.779008 0.178401
0.998326 0.778901 0.339212
0.998912 0.778562 0.477195
0.999467 0.777990 0.612443
1.000000 0.777161 0.747359
1.000000 0.776047 0.882618
1.000000 0.775013 0.983951
1.000000 0.919447 0.004312
1.000000 0.919495 0.073123
1.000000 0.919461 0.150394
1.000000 0.919450 0.328621
1.000000 0.919224 0.469287
1.000000 0.918809 0.605662
1.000000 0.918189 0.741206
1.000000 0.917342 0.876862
1.000000 0.916550 0.978405
1.000000 0.997018 0.002017
1.000000 0.997120 0.070827
1.000000 0.997230 0.148093
1.000000 0.997481 0.321111
1.000000 0.997678 0.464065
1.000000 0.997859 0.601324
1.000000 0.998028 0.737337
1.000000 0.998187 0.873275
1.000000 0.998299 0.974958
